!!!COM: Bach, Johann Sebastian
!!!CDT: 1685/3//-1750/7/28/
!!!OTL@@DE: O Haupt voll Blut und Wunden
!!!OTL@EN:  O sacred head now wounded
!!!OPR: Christmas Oratorio
!!!AGN: 4-Part Chorale
!!!SCT: BH 345
!!!SCT: BWV 248
**harm	**root	**kern	**kern	**kern	**kern
!	!	!bass	!tenor	!alto	!soprno
*	*Iorgan	*Iorgan	*Iorgan	*Iorgan	*Iorgan
*	*	*clefF4	*clefF4	*clefF4	*clefF4
*M4/4	*M4/4	*M4/4	*M4/4	*M4/4	*M4/4
*met(c)	*met(c)	*met(c)	*met(c)	*met(c)	*met(c)
*MM56	*MM56	*MM56	*MM56	*MM56	*MM56
*k[]	*k[]	*k[]	*k[]	*k[]	*k[]
*a:	*a:	*a:	*a:	*a:	*a:
*>[A,A,B]	*>[A,A,B]	*>[A,A,B]	*>[A,A,B]	*>[A,A,B]	*>[A,A,B]
*>A	*>A	*>A	*>A	*>A	*>A
V7	4EE	4E	4G#	8e	4e
.	.	.	.	8d	.
=1	=1	=1	=1	=1	=1
VI	4FF	4F	4A	8c	4a
.	.	.	.	8d	.
-VII	4GG	4G	4B	8d	4g
.	.	.	.	8e	.
VI7b	8FF	8A	8c	8e	4f
iio	8BB	8B	8d	8d	.
III	4CC	4c	4G	8d	4e
.	.	.	.	8c	.
=2	=2	=2	=2	=2	=2
iv	2DD	2F	8A	4c	2d
.	.	.	8G#	.	.
.	.	.	4A	8B	.
.	.	.	.	8A	.
V	4EE	4E;	4G#;	4B;	4e;
V	4EE	4E	4G#	4e	4b
=3	=3	=3	=3	=3	=3
i	4AA	8A	8A	4e	4cc
.	.	8Gn	8B	.	.
VI	4FF	8F	4c	4a	4cc
.	.	8E	.	.	.
ii7D	4BB	8D	4f	4a	8b
.	.	8BB	.	.	16cc
.	.	.	.	.	16dd
V7	4EE	4E	8e	4g#	4b
.	.	.	8d	.	.
=4	=4	=4	=4	=4	=4
i	2.AA	2.AA;	2.c;	2.e;	2.a;
=:|!	=:|!	=:|!	=:|!	=:|!	=:|!
*>B	*>B	*>B	*>B	*>B	*>B
i	4AA	4A	4e	8a	4cc
.	.	.	.	8g	.
=5	=5	=5	=5	=5	=5
iiob	4BB	4D	8d	4f	8b
.	.	.	8c	.	8a
v	4EE	4E	4B	8e	4g
.	.	.	.	8d	.
VI	4FF	8F	8A	4c	4a
.	.	8E	8G	.	.
iiob	4BB	4D	8F	4f	4b
.	.	.	8G	.	.
=6	=6	=6	=6	=6	=6
VIb	4FF	8AA	4A	4f	2cc
.	.	8BB	.	.	.
III	4CC	4C	8G	8e	.
.	.	.	8F	8d	.
III	4CC	4C;	4G;	4e;	4cc;
III	4CC	4C	4c	4e	4g
!!linebreak: 2
=7	=7	=7	=7	=7	=7
VI	4FF	8F	8c	4f	4a
.	.	8E	8d	.	.
V7b/IV	4AA	8D	4e	8B-	4g
.	.	8C#	.	8A	.
iv	8DD	4D	8d	8A	8f
vii/IV	8CC#	.	8c#	8G	8e
iv	8DD	4D	8d	8A	4f
vii7Dc	8GG#	.	8G#	8d	.
=8	=8	=8	=8	=8	=8
I	2.AA	2.AA;	2.A;	2.c#;	2.e;
V7b/-VII	4DD	4F#	4A	4d	4ccn
=9	=9	=9	=9	=9	=9
-VII	4GG	4G	8G	4d	8b
.	.	.	8A	.	8cc
-VII	4GG	8G	4B	4g	4dd
.	.	8F#	.	.	.
IIIb	4CC	4.E	8c	8g	4cc
.	.	.	8d	8f#	.
V	4EE	.	4e	4g	4b
.	.	8D	.	.	.
=10	=10	=10	=10	=10	=10
i7	4AA	8C	4e	4g	2a
.	.	8AA	.	.	.
V/-VII	4DD	4D	4d	4f#	.
-VII	4GG	4GG;	4d;	4g;	4b;
III	4CC	8C	4c	4g	4e
.	.	8BB	.	.	.
=11	=11	=11	=11	=11	=11
VIb	8FF	8AA	8c	8c	4f
iio	8BB	8BB	8B	8d	.
ib	4AA	[4C	8B	4c	4e
.	.	.	8A	.	.
ii7D	4BB	8C]	4A	4F	4d
.	.	[8BB	.	.	.
-VIIb	8GG	8BB]	8G	4d	8g
ivc	8DD	8AA	8A	.	8f
=12	=12	=12	=12	=12	=12
V7b	4EE	4GG#	4B	4d	2.e;
i	4AA	4AA	4A	4c	.
V	4EE	4E;	4G#;	4B;	.
==	==	==	==	==	==
*-	*-	*-	*-	*-	*-
!!chor2scor: -l 2 -s 0.6 -o %b.pmx
!!!YEC: Copyright 2003 by Craig Stuart Sapp
!!!license: GNU General Public License (http://www.gnu.org/copyleft/gpl.html)
!!!SMA: 371 Bach Chorales, edited by Ludwig Erk, C.F. Peters
!!!PDT: 1850, 1865
!!!ONB: Harmony and Root analysis done manually by Craig Sapp
